dist/assets/images/icon.svg

<svg width="140" height="140" viewBox="0 0 140 140" fill="none" xmlns="http://www.w3.org/2000/svg">
<path d="M59.0625 28.4375C59.0625 29.6455 58.083 30.625 56.875 30.625H78.75C77.542 30.625 76.5625 29.6455 76.5625 28.4375C76.5625 27.2295 77.542 26.25 78.75 26.25H56.875C58.083 26.25 59.0625 27.2295 59.0625 28.4375Z" fill="#E91609"/>
<path d="M96.25 80.9375C96.25 82.1455 95.2705 83.125 94.0625 83.125H115.938C114.729 83.125 113.75 82.1455 113.75 80.9375C113.75 79.7295 114.729 78.75 115.938 78.75H94.0625C95.2705 78.75 96.25 79.7295 96.25 80.9375Z" fill="#E91609"/>
<path fill-rule="evenodd" clip-rule="evenodd" d="M132.66 65.0141C136.248 69.1338 136.25 75.2536 132.667 79.363C136.932 80.8563 140 84.9193 140 89.6875C140 95.7348 135.109 100.625 129.062 100.625H85.4878C86.1021 98.9283 86.3244 97.9558 86.6203 96.25H129.062C130.816 96.25 132.464 95.5675 133.704 94.3286C137.826 90.2062 134.87 83.125 129.062 83.125H115.938C114.729 83.125 113.75 82.1455 113.75 80.9375C113.75 79.7295 114.729 78.75 115.938 78.75H124.414C126.168 78.75 127.816 78.0675 129.055 76.8286C133.178 72.7062 130.222 65.625 124.414 65.625C85.6879 65.625 83.8878 65.4229 82.5205 66.0978C82.3705 66.1718 82.2258 66.2564 82.0381 66.3529C81.231 64.8406 80.7133 64.031 79.7207 62.6273C80.2709 62.3211 80.8464 62.0654 81.4398 61.8589C78.0303 57.9428 77.857 52.2271 80.9435 48.125H70C68.792 48.125 67.8125 47.1455 67.8125 45.9375C67.8125 44.7295 68.792 43.75 70 43.75H85.3125C88.9309 43.75 91.875 40.8062 91.875 37.1875C91.875 33.5688 88.9309 30.625 85.3125 30.625H78.75C77.542 30.625 76.5625 29.6455 76.5625 28.4375C76.5625 27.2295 77.542 26.25 78.75 26.25H89.6875C93.3059 26.25 96.25 23.3059 96.25 19.6875C96.25 16.0691 93.3059 13.125 89.6875 13.125H50.3125C46.6941 13.125 43.75 16.0691 43.75 19.6875C43.75 23.3059 46.6941 26.25 50.3125 26.25H56.875C58.083 26.25 59.0625 27.2295 59.0625 28.4375C59.0625 29.6455 58.083 30.625 56.875 30.625H45.9375C42.3188 30.625 39.3753 33.5688 39.3753 37.1875C39.3753 40.7558 42.2377 43.6679 45.787 43.7483C42.6019 43.7144 40.7707 43.835 37.5452 44.1922C32.6892 38.3835 35.0902 29.5575 42.1304 26.9347C35.9002 19.9084 40.9188 8.75 50.3125 8.75H89.6875C95.7184 8.75 100.625 13.6566 100.625 19.6875C100.625 24.38 97.6538 28.3907 93.4946 29.9403C96.9768 33.8674 97.1534 39.6339 94.0565 43.75H129.062C135.093 43.75 140 48.6566 140 54.6875C140 59.4582 136.928 63.5228 132.66 65.0141ZM87.2818 83.125H94.0625C95.2705 83.125 96.25 82.1455 96.25 80.9375C96.25 79.7295 95.2705 78.75 94.0625 78.75H86.6203C86.9748 80.4336 87.1272 81.3918 87.2818 83.125ZM129.062 61.25C132.681 61.25 135.625 58.3059 135.625 54.6875C135.625 51.0691 132.681 48.125 129.062 48.125H89.6875C86.0691 48.125 83.125 51.0691 83.125 54.6875C83.125 58.3059 86.0691 61.25 89.6875 61.25H129.062Z" fill="#E91609"/>
<path fill-rule="evenodd" clip-rule="evenodd" d="M37.5452 44.1922C16.3496 47.2147 0 65.4825 0 87.5C0 111.624 19.6263 131.25 43.75 131.25C63.3027 131.25 79.8995 118.356 85.4878 100.625C86.1021 98.9283 86.3244 97.9558 86.6203 96.25C87.4858 92.0041 87.7259 87.5763 87.2818 83.125C87.1272 81.3918 86.9748 80.4336 86.6203 78.75C85.7218 74.3416 84.1567 70.1736 82.0381 66.3529C81.231 64.8406 80.7133 64.031 79.7207 62.6273C75.4395 56.4549 69.6128 51.4327 62.8052 48.125C57.8416 45.7133 52.3565 44.2131 46.5686 43.8432C46.3687 43.7831 46.1571 43.75 45.9378 43.75L45.787 43.7483C42.6019 43.7144 40.7707 43.835 37.5452 44.1922ZM4.375 87.5C4.375 109.211 22.0385 126.875 43.75 126.875C65.4615 126.875 83.125 109.211 83.125 87.5C83.125 65.7885 65.4615 48.125 43.75 48.125C22.0385 48.125 4.375 65.7885 4.375 87.5Z" fill="white"/>
<path d="M67.8125 45.9375C67.8125 44.7295 68.792 43.75 70 43.75L45.787 43.7483L45.9378 43.75C46.1571 43.75 46.3687 43.7831 46.5686 43.8432C52.3565 44.2131 57.8416 45.7133 62.8052 48.125H70C68.792 48.125 67.8125 47.1455 67.8125 45.9375Z" fill="#E91609"/>
<path d="M105 83.1248C103.796 83.1248 102.812 82.1492 102.812 80.9373C102.812 79.54 104.1 78.5228 105.427 78.7935C106.663 79.0364 107.383 80.2564 107.144 81.3639C106.941 82.3999 106.026 83.1248 105 83.1248Z" fill="#E91609"/>
<path d="M67.8125 30.625C66.6058 30.625 65.625 29.6467 65.625 28.4375C65.625 27.0452 66.9085 26.0225 68.2391 26.2938C69.4539 26.5322 70.1996 27.7332 69.9562 28.8641C69.7503 29.9125 68.828 30.625 67.8125 30.625Z" fill="#E91609"/>
<path d="M51.2091 59.0625H37.1875C35.9795 59.0625 35 60.042 35 61.25V85.3125H28.4375C27.2295 85.3125 26.25 86.292 26.25 87.5C26.25 88.708 27.2295 89.6875 28.4375 89.6875H35V94.0625H28.4375C27.2295 94.0625 26.25 95.042 26.25 96.25C26.25 97.458 27.2295 98.4375 28.4375 98.4375H35V113.75C35 114.958 35.9795 115.938 37.1875 115.938C38.3955 115.938 39.375 114.958 39.375 113.75V98.4375H52.5C53.708 98.4375 54.6875 97.458 54.6875 96.25C54.6875 95.042 53.708 94.0625 52.5 94.0625H39.375V89.6875H51.2091C59.1579 89.6875 65.625 83.2204 65.625 75.2716V73.4784C65.625 65.5296 59.1579 59.0625 51.2091 59.0625ZM61.25 75.2716C61.25 80.8082 56.7457 85.3125 51.2091 85.3125H39.375V63.4375H51.2091C56.7457 63.4375 61.25 67.9418 61.25 73.4784V75.2716Z" fill="#E91609"/>
</svg>

<svg width="140" height="140" fill="none" xmlns="http://www.w3.org/2000/svg"><path d="M59.063 28.438c0 1.207-.98 2.187-2.188 2.187H78.75a2.188 2.188 0 010-4.375H56.875c1.208 0 2.188.98 2.188 2.188zm37.187 52.5c0 1.207-.98 2.187-2.188 2.187h21.876a2.187 2.187 0 110-4.375H94.062c1.209 0 2.188.98 2.188 2.188z" fill="#E91609"/><path fill-rule="evenodd" clip-rule="evenodd" d="M132.66 65.014c3.588 4.12 3.59 10.24.007 14.349 4.265 1.493 7.333 5.556 7.333 10.325a10.93 10.93 0 01-10.938 10.937H85.488c.614-1.697.836-2.67 1.132-4.375h42.442a6.524 6.524 0 004.642-1.921c4.122-4.123 1.166-11.204-4.642-11.204h-13.124a2.187 2.187 0 110-4.375h8.476a6.52 6.52 0 004.641-1.921c4.123-4.123 1.167-11.204-4.641-11.204-38.726 0-40.526-.202-41.894.473-.15.074-.294.158-.482.255-.807-1.512-1.325-2.322-2.317-3.726.55-.306 1.125-.562 1.719-.768a10.906 10.906 0 01-.496-13.734H70a2.188 2.188 0 010-4.375h15.313a6.57 6.57 0 006.562-6.563 6.57 6.57 0 00-6.563-6.562H78.75a2.188 2.188 0 010-4.375h10.938a6.57 6.57 0 006.562-6.563 6.57 6.57 0 00-6.563-6.562H50.313a6.57 6.57 0 00-6.563 6.563 6.57 6.57 0 006.563 6.562h6.562a2.188 2.188 0 010 4.375H45.937a6.57 6.57 0 00-6.562 6.563 6.57 6.57 0 006.412 6.56c-3.185-.034-5.016.087-8.242.444-4.856-5.809-2.455-14.634 4.585-17.257C35.9 19.908 40.92 8.75 50.312 8.75h39.376c6.03 0 10.937 4.907 10.937 10.938 0 4.692-2.971 8.703-7.13 10.252a10.909 10.909 0 01.561 13.81h35.006c6.031 0 10.938 4.907 10.938 10.938 0 4.77-3.072 8.835-7.34 10.326zM87.282 83.125h6.78a2.188 2.188 0 000-4.375H86.62c.355 1.684.507 2.642.662 4.375zm41.78-21.875a6.57 6.57 0 006.563-6.563 6.57 6.57 0 00-6.563-6.562H89.687a6.57 6.57 0 00-6.562 6.563 6.57 6.57 0 006.563 6.562h39.374z" fill="#E91609"/><path fill-rule="evenodd" clip-rule="evenodd" d="M37.545 44.192C16.35 47.215 0 65.482 0 87.5c0 24.124 19.626 43.75 43.75 43.75 19.553 0 36.15-12.894 41.738-30.625.614-1.697.836-2.67 1.132-4.375a43.913 43.913 0 00.662-13.125c-.155-1.733-.307-2.691-.662-4.375a43.44 43.44 0 00-4.582-12.397c-.807-1.512-1.325-2.322-2.317-3.726a44.045 44.045 0 00-16.916-14.502 43.428 43.428 0 00-16.236-4.282c-.2-.06-.412-.093-.631-.093l-.151-.002c-3.185-.034-5.016.087-8.242.444zM4.375 87.5c0 21.711 17.663 39.375 39.375 39.375S83.125 109.211 83.125 87.5c0-21.712-17.663-39.375-39.375-39.375S4.375 65.788 4.375 87.5z" fill="#fff"/><path d="M67.813 45.938c0-1.209.979-2.188 2.187-2.188l-24.213-.002.15.002c.22 0 .432.033.632.093a43.428 43.428 0 0116.236 4.282H70a2.188 2.188 0 01-2.188-2.188zM105 83.125a2.188 2.188 0 112.144-1.76 2.187 2.187 0 01-2.144 1.76zm-37.187-52.5a2.188 2.188 0 110-4.375 2.188 2.188 0 010 4.375zM51.21 59.063H37.186a2.187 2.187 0 00-2.187 2.187v24.063h-6.563a2.188 2.188 0 000 4.374H35v4.376h-6.563a2.188 2.188 0 000 4.374H35v15.313a2.188 2.188 0 004.375 0V98.437H52.5a2.188 2.188 0 000-4.374H39.375v-4.376h11.834c7.949 0 14.416-6.467 14.416-14.415v-1.794c0-7.948-6.467-14.415-14.416-14.415zm10.04 16.209c0 5.536-4.504 10.04-10.04 10.04H39.374V63.439h11.834c5.537 0 10.041 4.504 10.041 10.04v1.794z" fill="#E91609"/></svg>
